X:1
T: The Wheels of the World
C:
R:Jig
Q:180
K:G
M:6/8
L:1/16
G2|:F2D2D2 A2D2D2|B2G2B2 c2B2A2|B2c2d2 e2c2A2|A2B2G2 F2E2D2|
G6 A4A2|B2G2B2 c2B2A2|B2c2d2 e2c2A2|A2G2G2 G4G2:|
|:d2e2f2 g2d2B2|d2B2G2 c4A2|B2c2d2 e2c2A2|A2B2G2 F2E2D2|
|1d2e2f2 g2d2B2|d2B2G2 c4A2|B2c2d2 e2c2A2|A2G2G2 G4B2:|
|2G6 A4A2|B2G2B2 c2B2A2|B2c2d2 e2c2A2|A2G2G2 G4||
